X: 21688
T: Kilshanny Thunder
R: jig
M: 6/8
K: Fdorian
K: Bbmix
|:Ace fdA|~B3 def|a2a ged|fed ~B3|
Ace fdA|~B3 efa|fed B3|1 fed B3:|2 def b3||
fef a2f|b2f a2d|fed BFA|def b3|
fef ~a3|~f3 efa|fed B3|def b3|
fef ~a3|~b3 afd|fed BFA|def b3|
fef ~a3|~f3 efa|fed B3|fed B3||

